outputs/icons/communication/snooze_round.svg

<svg xmlns="http://www.w3.org/2000/svg" width="1200" height="1200" fill="none"><path fill="#000" d="M355.82 201.518c21.094-17.693 23.871-49.13 6.204-70.246-17.685-21.139-49.16-23.936-70.296-6.247L138.482 253.286c-21.231 17.769-23.978 49.409-6.132 70.575 17.768 21.074 49.241 23.796 70.361 6.082zm711.855 122.815c17.83-21.147 15.12-52.775-6.065-70.556l-153.4-128.719c-21.115-17.721-52.615-14.982-70.385 6.095-17.83 21.147-15.12 52.776 6.065 70.555l153.4 128.72c21.115 17.721 52.615 14.982 70.385-6.095M600 199.993c-248.5 0-450 201.5-450 450.002 0 248.5 201 450 450 450 248.5 0 450-201.5 450-450 0-248.502-201.5-450.002-450-450.002m0 800.002c-193.5 0-350-156.5-350-350 0-193.502 156.5-350.002 350-350.002s350 156.5 350 350.002c0 193.5-156.5 350-350 350m-150-487.5c0 20.71 16.789 37.5 37.5 37.5h144L459.128 749.43A37.5 37.5 0 0 0 450 773.955v38.54c0 20.71 16.789 37.5 37.5 37.5h225c20.71 0 37.5-16.79 37.5-37.5v-25c0-20.71-16.79-37.5-37.5-37.5h-144l172.37-199.44a37.5 37.5 0 0 0 9.13-24.52v-38.542c0-20.711-16.79-37.5-37.5-37.5h-225c-20.711 0-37.5 16.789-37.5 37.5z"/></svg>

<svg width="1200" height="1200" viewBox="0 0 1200 1200" fill="none" xmlns="http://www.w3.org/2000/svg"><path d="M355.82 201.518C376.914 183.825 379.691 152.388 362.024 131.272C344.339 110.133 312.864 107.336 291.728 125.025L138.482 253.286C117.251 271.055 114.504 302.695 132.35 323.861C150.118 344.935 181.591 347.657 202.711 329.943L355.82 201.518ZM1067.675 324.333C1085.505 303.186 1082.795 271.558 1061.61 253.777L908.21 125.058C887.095 107.337 855.595 110.076 837.825 131.153C819.995 152.3 822.705 183.929 843.89 201.708L997.29 330.428C1018.405 348.149 1049.905 345.41 1067.675 324.333ZM600 199.993C351.5 199.993 150 401.493 150 649.995C150 898.495 351 1099.995 600 1099.995C848.5 1099.995 1050 898.495 1050 649.995C1050 401.493 848.5 199.993 600 199.993ZM600 999.995C406.5 999.995 250 843.495 250 649.995C250 456.493 406.5 299.993 600 299.993C793.5 299.993 950 456.493 950 649.995C950 843.495 793.5 999.995 600 999.995ZM450 512.495C450 533.205 466.789 549.995 487.5 549.995H631.5L459.128 749.43C453.24 756.245 450 764.95 450 773.955V812.495C450 833.205 466.789 849.995 487.5 849.995H712.5C733.21 849.995 750 833.205 750 812.495V787.495C750 766.785 733.21 749.995 712.5 749.995H568.5L740.87 550.555C746.76 543.74 750 535.04 750 526.035V487.493C750 466.782 733.21 449.993 712.5 449.993H487.5C466.789 449.993 450 466.782 450 487.493V512.495Z" fill="black"/></svg>
